assets/icons/godot_color.svg

<svg height="1024" width="1024" xmlns="http://www.w3.org/2000/svg"><path d="m0 0s-.325 1.994-.515 1.976l-36.182-3.491c-2.879-.278-5.115-2.574-5.317-5.459l-.994-14.247L-71-23.218l-1.904 12.912c-.424 2.872-2.932 5.037-5.835 5.037h-38.188c-2.902.0-5.41-2.165-5.834-5.037l-1.905-12.912-27.992 1.997-.994 14.247c-.202 2.886-2.438 5.182-5.317 5.46l-36.2 3.49c-.187.018-.324-1.978-.511-1.978l-.049-7.83 30.658-4.944 1.004-14.374c.203-2.91 2.551-5.263 5.463-5.472l38.551-2.75c.146-.01.29-.016.434-.016 2.897.0 5.401 2.166 5.825 5.038l1.959 13.286h28.005l1.959-13.286c.423-2.871 2.93-5.037 5.831-5.037.142.0.284.005.423.015l38.556 2.75c2.911.209 5.26 2.562 5.463 5.472l1.003 14.374 30.645 4.966z" fill="#fff" transform="matrix(4.162611 0 0 -4.162611 919.24059 673.152141)"/><path d="m0 0v-47.514-6.035-5.492c.108-.001.216-.005.323-.015l36.196-3.49c1.896-.183 3.382-1.709 3.514-3.609l1.116-15.978 31.574-2.253 2.175 14.747c.282 1.912 1.922 3.329 3.856 3.329h38.188c1.933.0 3.573-1.417 3.855-3.329l2.175-14.747 31.575 2.253 1.115 15.978c.133 1.9 1.618 3.425 3.514 3.609l36.182 3.49c.107.01.214.014.322.015v4.711l.015.005v54.325c5.09692 6.4164715 9.92323 13.494208 13.621 19.449-5.651 9.62-12.575 18.217-19.976 26.182-6.864-3.455-13.531-7.369-19.828-11.534-3.151 3.132-6.7 5.694-10.186 8.372-3.425 2.751-7.285 4.768-10.946 7.118 1.09 8.117 1.629 16.108 1.846 24.448-9.446 4.754-19.519 7.906-29.708 10.17-4.068-6.837-7.788-14.241-11.028-21.479-3.842.642-7.702.88-11.567.926v.006c-.027.0-.052-.006-.075-.006-.024.0-.049.006-.073.006v-.006c-3.872-.046-7.729-.284-11.572-.926-3.238 7.238-6.956 14.642-11.03 21.479-10.184-2.264-20.258-5.416-29.703-10.17.216-8.34.755-16.331 1.848-24.448-3.668-2.35-7.523-4.367-10.949-7.118-3.481-2.678-7.036-5.24-10.188-8.372-6.297 4.165-12.962 8.079-19.828 11.534-7.401-7.965-14.321-16.562-19.974-26.182 4.4426579-6.973692 9.2079702-13.9828876 13.621-19.449z" fill="#478cbf" transform="matrix(4.162611 0 0 -4.162611 104.69892 427.387251)"/><path d="m0 0-1.121-16.063c-.135-1.936-1.675-3.477-3.611-3.616l-38.555-2.751c-.094-.007-.188-.01-.281-.01-1.916.0-3.569 1.406-3.852 3.33l-2.211 14.994H-81.09l-2.211-14.994c-.297-2.018-2.101-3.469-4.133-3.32l-38.555 2.751c-1.936.139-3.476 1.68-3.611 3.616L-130.721.0l-32.547 3.138c.015-3.498.06-7.33.06-8.093.0-34.374 43.605-50.896 97.781-51.086h.066.067c54.176.19 97.766 16.712 97.766 51.086.0.777.047 4.593.063 8.093z" fill="#478cbf" transform="matrix(4.162611 0 0 -4.162611 784.07144 718.723121)"/><path d="m0 0c0-12.052-9.765-21.815-21.813-21.815-12.042.0-21.81 9.763-21.81 21.815.0 12.044 9.768 21.802 21.81 21.802C-9.765 21.802.0 12.044.0.0" fill="#fff" transform="matrix(4.162611 0 0 -4.162611 389.21484 527.151321)"/><path d="m0 0c0-7.994-6.479-14.473-14.479-14.473-7.996.0-14.479 6.479-14.479 14.473s6.483 14.479 14.479 14.479C-6.479 14.479.0 7.994.0.0" fill="#414042" transform="matrix(4.162611 0 0 -4.162611 367.36686 532.537071)"/><path d="m0 0c-3.878.0-7.021 2.858-7.021 6.381v20.081c0 3.52 3.143 6.381 7.021 6.381s7.028-2.861 7.028-6.381V6.381c0-3.523-3.15-6.381-7.028-6.381" fill="#fff" transform="matrix(4.162611 0 0 -4.162611 511.99336 626.219821)"/><path d="m0 0c0-12.052 9.765-21.815 21.815-21.815 12.041.0 21.808 9.763 21.808 21.815.0 12.044-9.767 21.802-21.808 21.802-12.05.0-21.815-9.758-21.815-21.802" fill="#fff" transform="matrix(4.162611 0 0 -4.162611 634.78706 527.151321)"/><path d="m0 0c0-7.994 6.477-14.473 14.471-14.473C22.473-14.473 28.95-7.994 28.95.0s-6.477 14.479-14.479 14.479C6.477 14.479.0 7.994.0.0" fill="#414042" transform="matrix(4.162611 0 0 -4.162611 656.64056 532.537071)"/></svg>

<?xml version="1.0" encoding="UTF-8" standalone="no"?>
<!DOCTYPE svg PUBLIC "-//W3C//DTD SVG 1.1//EN" "http://www.w3.org/Graphics/SVG/1.1/DTD/svg11.dtd">
<svg width="100%" height="100%" viewBox="0 0 1024 1024" version="1.1" xmlns="http://www.w3.org/2000/svg" xmlns:xlink="http://www.w3.org/1999/xlink" xml:space="preserve" xmlns:serif="http://www.serif.com/" style="fill-rule:evenodd;clip-rule:evenodd;stroke-linejoin:round;stroke-miterlimit:2;">
    <g transform="matrix(4.16261,0,0,-4.16261,919.241,647.152)">
        <path d="M0,0C0,0 -0.325,1.994 -0.515,1.976L-36.697,-1.515C-39.576,-1.793 -41.812,-4.089 -42.014,-6.974L-43.008,-21.221L-71,-23.218L-72.904,-10.306C-73.328,-7.434 -75.836,-5.269 -78.739,-5.269L-116.927,-5.269C-119.829,-5.269 -122.337,-7.434 -122.761,-10.306L-124.666,-23.218L-152.658,-21.221L-153.652,-6.974C-153.854,-4.088 -156.09,-1.792 -158.969,-1.514L-195.169,1.976C-195.356,1.994 -195.493,-0.002 -195.68,-0.002L-195.729,-7.832L-165.071,-12.776L-164.067,-27.15C-163.864,-30.06 -161.516,-32.413 -158.604,-32.622L-120.053,-35.372C-119.907,-35.382 -119.763,-35.388 -119.619,-35.388C-116.722,-35.388 -114.218,-33.222 -113.794,-30.35L-111.835,-17.064L-83.83,-17.064L-81.871,-30.35C-81.448,-33.221 -78.941,-35.387 -76.04,-35.387C-75.898,-35.387 -75.756,-35.382 -75.617,-35.372L-37.061,-32.622C-34.15,-32.413 -31.801,-30.06 -31.598,-27.15L-30.595,-12.776L0.05,-7.81L0,0Z" style="fill:white;fill-rule:nonzero;"/>
    </g>
    <g transform="matrix(4.16261,0,0,-4.16261,104.699,401.387)">
        <path d="M0,0L0,-59.041C0.108,-59.042 0.216,-59.046 0.323,-59.056L36.519,-62.546C38.415,-62.729 39.901,-64.255 40.033,-66.155L41.149,-82.133L72.723,-84.386L74.898,-69.639C75.18,-67.727 76.82,-66.31 78.754,-66.31L116.942,-66.31C118.875,-66.31 120.515,-67.727 120.797,-69.639L122.972,-84.386L154.547,-82.133L155.662,-66.155C155.795,-64.255 157.28,-62.73 159.176,-62.546L195.358,-59.056C195.465,-59.046 195.572,-59.042 195.68,-59.041L195.68,-54.33L195.695,-54.325L195.695,0C200.792,6.416 205.618,13.494 209.316,19.449C203.665,29.069 196.741,37.666 189.34,45.631C182.476,42.176 175.809,38.262 169.512,34.097C166.361,37.229 162.812,39.791 159.326,42.469C155.901,45.22 152.041,47.237 148.38,49.587C149.47,57.704 150.009,65.695 150.226,74.035C140.78,78.789 130.707,81.941 120.518,84.205C116.45,77.368 112.73,69.964 109.49,62.726C105.648,63.368 101.788,63.606 97.923,63.652L97.923,63.658C97.896,63.658 97.871,63.652 97.848,63.652C97.824,63.652 97.799,63.658 97.775,63.658L97.775,63.652C93.903,63.606 90.046,63.368 86.203,62.726C82.965,69.964 79.247,77.368 75.173,84.205C64.989,81.941 54.915,78.789 45.47,74.035C45.686,65.695 46.225,57.704 47.318,49.587C43.65,47.237 39.795,45.22 36.369,42.469C32.888,39.791 29.333,37.229 26.181,34.097C19.884,38.262 13.219,42.176 6.353,45.631C-1.048,37.666 -7.968,29.069 -13.621,19.449C-9.178,12.475 -4.413,5.466 -0,0Z" style="fill:rgb(71,140,191);fill-rule:nonzero;"/>
    </g>
    <g transform="matrix(4.16261,0,0,-4.16261,784.071,692.723)">
        <path d="M0,0L-1.121,-16.063C-1.256,-17.999 -2.796,-19.54 -4.732,-19.679L-43.287,-22.43C-43.381,-22.437 -43.475,-22.44 -43.568,-22.44C-45.484,-22.44 -47.137,-21.034 -47.42,-19.11L-49.631,-4.116L-81.09,-4.116L-83.301,-19.11C-83.598,-21.128 -85.402,-22.579 -87.434,-22.43L-125.989,-19.679C-127.925,-19.54 -129.465,-17.999 -129.6,-16.063L-130.721,0L-163.268,3.138C-163.253,-0.36 -163.208,-4.192 -163.208,-4.955C-163.208,-39.329 -119.603,-55.851 -65.427,-56.041L-65.294,-56.041C-11.118,-55.851 32.472,-39.329 32.472,-4.955C32.472,-4.178 32.519,-0.362 32.535,3.138L0,0Z" style="fill:rgb(71,140,191);fill-rule:nonzero;"/>
    </g>
    <g transform="matrix(4.16261,0,0,-4.16261,389.215,501.151)">
        <path d="M0,0C0,-12.052 -9.765,-21.815 -21.813,-21.815C-33.855,-21.815 -43.623,-12.052 -43.623,0C-43.623,12.044 -33.855,21.802 -21.813,21.802C-9.765,21.802 0,12.044 0,0" style="fill:white;fill-rule:nonzero;"/>
    </g>
    <g transform="matrix(4.16261,0,0,-4.16261,367.367,506.537)">
        <path d="M0,0C0,-7.994 -6.479,-14.473 -14.479,-14.473C-22.475,-14.473 -28.958,-7.994 -28.958,0C-28.958,7.994 -22.475,14.479 -14.479,14.479C-6.479,14.479 0,7.994 0,0" style="fill:rgb(65,64,66);fill-rule:nonzero;"/>
    </g>
    <g transform="matrix(4.16261,0,0,-4.16261,511.993,600.22)">
        <path d="M0,0C-3.878,0 -7.021,2.858 -7.021,6.381L-7.021,26.462C-7.021,29.982 -3.878,32.843 0,32.843C3.878,32.843 7.028,29.982 7.028,26.462L7.028,6.381C7.028,2.858 3.878,0 0,0" style="fill:white;fill-rule:nonzero;"/>
    </g>
    <g transform="matrix(4.16261,0,0,-4.16261,634.787,501.151)">
        <path d="M0,0C0,-12.052 9.765,-21.815 21.815,-21.815C33.856,-21.815 43.623,-12.052 43.623,0C43.623,12.044 33.856,21.802 21.815,21.802C9.765,21.802 0,12.044 0,0" style="fill:white;fill-rule:nonzero;"/>
    </g>
    <g transform="matrix(4.16261,0,0,-4.16261,656.641,506.537)">
        <path d="M0,0C0,-7.994 6.477,-14.473 14.471,-14.473C22.473,-14.473 28.95,-7.994 28.95,0C28.95,7.994 22.473,14.479 14.471,14.479C6.477,14.479 0,7.994 0,0" style="fill:rgb(65,64,66);fill-rule:nonzero;"/>
    </g>
</svg>
